X: 12
T: ROND DE LOUDEAC 6
M: 4/4
L: 1/8
Q:1/4=150
K:C
|cABc de3/2 z/2 d|eeed edcB3/2 z/2 |ABcd e3/2 z/2 de|eede dcB3/2 z/2 |
e3/2 z/2 ed ecA3/2 z/2 |ddcA3/2 z/2 GAB|dddc Bc3/2 z/2 |A3/2 z/2 dd cA3/
2 z/2 G|
ABdd dcBc3/2 z/2 |A3/2|
